!!!COM: Palestrina, Giovanni Perluigi da
!!!OPR: Missa O magnum mysterium
!!!OMD: Sanctus
!!!OTL: First Section
**kern	**kern	**kern	**kern	**kern
*Ibass	*Itenor	*Icalto	*Icalto	*Icant
!Bassus	!Tenor	!Altus 2	!Altus 1	!Cantus
*clefF4	*clefGv2	*clefG2	*clefG2	*clefG2
*k[]	*k[]	*k[]	*k[]	*k[]
*E:phr	*E:phr	*E:phr	*E:phr	*E:phr
*M4/2	*M4/2	*M4/2	*M4/2	*M4/2
=1	=1	=1	=1	=1
0r	0E	0B	[0e	0g#
=2	=2	=2	=2	=2
0AA	0A	0c#	0e]	0a
=3	=3	=3	=3	=3
0D	1r	[0d	0f#	0a
.	1D	.	.	.
=4	=4	=4	=4	=4
0r	1G	1d]	1g	1b
.	2.F	2.f	2.a	1cc
.	4E	4g	4g	.
=5	=5	=5	=5	=5
0r	4D	2.a	2.f	2dd
.	4E	.	.	.
.	4F	.	.	2.cc
.	4G	8g	4e	.
.	.	8f	.	.
.	4A	2e	4c	.
.	4B	.	4d	4b
.	4c	2c	[2e	[2a
.	4A	.	.	.
=6	=6	=6	=6	=6
1r	1B	1d	4e]	2a]
.	.	.	4d	.
.	.	.	1d	2g#
[1AA	[1A	1e	.	[1a
.	.	.	4c#	.
.	.	.	4B	.
=7	=7	=7	=7	=7
1AA]	0A]	1e	1c#	0a]
1D	.	1f#	1d	.
=8	=8	=8	=8	=8
2.C	0c	1g	0e	0r
4BB	.	.	.	.
4AA	.	2a	.	.
4BB	.	.	.	.
4C	.	[2g	.	.
4D	.	.	.	.
=9	=9	=9	=9	=9
4E	2.B	4g]	1e	0r
4F	.	4f	.	.
4G	.	1e	.	.
4E	4c	.	.	.
1F	1A	.	2c	.
.	.	2d	4B	.
.	.	.	4A	.
=10	=10	=10	=10	=10
1E	2B	1e	2G#	2r
.	2E	.	2B	2g#
1r	2E	2r	2B	2g#
.	2E	2e	2B	2g#
=11	=11	=11	=11	=11
0r	1A	2e	1c#	1a
.	.	2e	.	.
.	2D	2f	2d	2a
.	[2d	2d	[2f	4a
.	.	.	.	4g
=12	=12	=12	=12	=12
0r	2d]	2f	2f]	4a
.	.	.	.	4b
.	2c	2g	2e	2.cc
.	1A	2.c	1e	.
.	.	.	.	4b
.	.	.	.	[2a
.	.	4d	.	.
=13	=13	=13	=13	=13
1E	1B	1e	2r	2a]
.	.	.	2B	4g#
.	.	.	.	4f#
2E	1r	2r	2B	2g#
2E	.	2e	2B	2g#
=14	=14	=14	=14	=14
1A	1r	2e	1c#	[0a
.	.	2e	.	.
1D	2r	1f	1d	.
.	[2d	.	.	.
=15	=15	=15	=15	=15
1.A	2d]	2e	1e	1a]
.	2c	2A	.	.
.	2A	2c	2f#	2r
2G	[2B	4B	[2g	2e
.	.	4A	.	.
=16	=16	=16	=16	=16
1E	2B]	2G	4g]	2e
.	.	.	4f	.
.	1c	2G	1e	2e
1F	.	1A	.	1a
.	4B	.	2d	.
.	4A	.	.	.
=17	=17	=17	=17	=17
1E	1B	2r	2.e	2.g#
.	.	2e	.	.
.	.	.	4f#	4a
1r	2r	2e	2g#	2b
.	2A	2e	2a	[2cc
=18	=18	=18	=18	=18
0r	2A	1a	2e	4cc]
.	.	.	.	4a
.	2A	.	2.a	1cc
.	1d	1f	.	.
.	.	.	4g	.
.	.	.	[2f	2b
=19	=19	=19	=19	=19
1r	2.c	1g	2f]	0cc
.	.	.	2e	.
.	4B	.	.	.
2r	4A	2f	2.c	.
.	4G	.	.	.
2AA	[2A	4e	.	.
.	.	4d	4d	.
=20	=20	=20	=20	=20
2AA	2A]	4c	1e	2r
.	.	4d	.	.
2AA	2E	1e	.	2a
1D	1F	.	2r	2a
.	.	2d	2A	2a
=21	=21	=21	=21	=21
1.AA	2E	0e	2A	1cc
.	2A	.	2A	.
.	2A	.	1c	2a
[2A	2A	.	.	[2cc
=22	=22	=22	=22	=22
2A]	2c	1r	2A	2cc]
2G	2d	.	2B	2b
2.E	2.e	2r	2c	2.g
.	.	2e	[2B	.
4F	8d	.	.	4a
.	8c	.	.	.
=23	=23	=23	=23	=23
2G	2B	2e	2B]	2b
2A	2A	2e	1e	1cc
1F	1A	1a	.	.
.	.	.	2d	4b
.	.	.	.	4a
=24	=24	=24	=24	=24
1E	2r	2.g	2.e	2cc
.	2E	.	.	2b
.	.	4f	4d	.
1r	2E	4e	2c	2r
.	.	4d	.	.
.	2E	[2e	2B	2g
=25	=25	=25	=25	=25
2r	1A	4e]	2c	2a
.	.	4d	.	.
1A	.	2c	2.e	2a
.	2E	2B	.	1b
.	.	.	4f	.
2G	[2e	2B	[2g	.
=26	=26	=26	=26	=26
1E	2e]	1e	4g]	2b
.	.	.	4f	.
.	2c	.	1e	2.cc
1F	1A	1r	.	.
.	.	.	.	4b
.	.	.	2d	[2a
=27	=27	=27	=27	=27
1E	1B	2r	1e	2a]
.	.	1e	.	2g#
2r	2.A	.	2r	1a
[2F	.	2c	[2a	.
.	4G	.	.	.
=28	=28	=28	=28	=28
2F]	2A	2d	2a]	0r
2E	2B	2.e	2g	.
1C	1c	.	1e	.
.	.	4d	.	.
.	.	4c	.	.
.	.	4B	.	.
=29	=29	=29	=29	=29
1D	1F	1A	1f	2r
.	.	.	.	1a
1C	2r	1c	2.e	.
.	2G	.	.	2g
.	.	.	4d	.
=30	=30	=30	=30	=30
2r	2A	2r	4c	2e
.	.	.	4B	.
1D	2A	4F	4A	1f
.	.	4G	4G	.
.	2D	4A	2F	.
.	.	4B	.	.
2C	2E	[2c	2G	4e
.	.	.	.	4d
=31	=31	=31	=31	=31
1AA	2F	2c]	1A	1c
.	2E	1A	.	.
1BB	1D	.	2r	2d
.	.	2G#	2d	[2dd
=32	=32	=32	=32	=32
2AA	1A	2r	2f	2dd]
1A	.	4c	2e	2cc
.	.	4d	.	.
.	2r	4e	2c	2a
.	.	4f	.	.
2G	[2d	2g	2d	[2b
=33	=33	=33	=33	=33
1E	2d]	4g	1e	2b]
.	.	4f	.	.
.	2c	2.e	.	2.cc
1F	1A	.	1r	.
.	.	8d	.	4b
.	.	8c	.	.
.	.	2d	.	[2a
=34	=34	=34	=34	=34
0E	2.B	1e	2r	2a]
.	.	.	1e	4g
.	4c	.	.	4f#
.	2B	[1e	.	2g#
.	2B	.	2B	2g#
=35	=35	=35	=35	=35
2r	[0A	2e]	2c	[0a
1D	.	1f	2d	.
.	.	.	4A	.
.	.	.	4B	.
2C	.	2e	4c	.
.	.	.	4d	.
=36	=36	=36	=36	=36
1AA	0A]	1c#	1e	0a]
1D	.	1d	2.f	.
.	.	.	4f	.
=37	=37	=37	=37	=37
[0AA	[0A	[0c#	[0e	[0a
=38	=38	=38	=38	=38
0AA]	0A]	0c#]	0e]	0a]
*-	*-	*-	*-	*-
!!!CDT: 1525/^1526/-1594/2/2
!!!OCY: Italia
!!!AGN: Mass (Parody)
!!!AST: renaissance, vocal
!!!ASW: Motet 1569 (Palestrina)
!!!PWK: Masses, Book 4
!!!RNB: Cadence finals: A,C,G,F
!!!YOR: Le Opere Complete, v. 10, p. 150
!!!YOO: Rome, Italy: Fratelli Scalera
!!!END: 1992//
!!!EED: John Miller
!!!YEC: Copyright 2000, John Miller
!!!YEN: United States of America
!!!YEM: Rights to all derivative electronic formats reserved.
!!!YEM: Refer to licensing agreement for further details.
!!!YEM: This file must be accompanied by the licensing agreement.
!!!YEM: A copy of the licensing agreement may be found at http://www.music-cog.ohio-state.edu/HumdrumDatabases/Palestrina/license.txt
!!!EMD: converted to Humdrum by Bret Aarden
